Obsidian/places/16s/folder-drag-accept-symbolic.svg

<svg height="16" width="16" xmlns="http://www.w3.org/2000/svg"><path d="m.875 2c-.533351 0-.7251867.3866433-.875.8574219v3.1425781h9.5l-3.5-4zm-.875 5v7.142578c.0000262.39668.456659.857422.875.857422h14.25c.384321 0 .931352-.454723.875-.857422v-6.142578c.0084-.490991-.479493-.9705171-.875-1z" fill="#bebebe"/></svg>

<?xml version="1.0" encoding="UTF-8" standalone="no"?>
<svg
   xmlns:dc="http://purl.org/dc/elements/1.1/"
   xmlns:cc="http://creativecommons.org/ns#"
   xmlns:rdf="http://www.w3.org/1999/02/22-rdf-syntax-ns#"
   xmlns:svg="http://www.w3.org/2000/svg"
   xmlns="http://www.w3.org/2000/svg"
   version="1.1"
   width="16"
   height="16"
   id="svg7384">
  <defs
     id="defs10" />
  <metadata
     id="metadata90">
    <rdf:RDF>
      <cc:Work
         rdf:about="">
        <dc:format>image/svg+xml</dc:format>
        <dc:type
           rdf:resource="http://purl.org/dc/dcmitype/StillImage" />
        <dc:title>Gnome Symbolic Icon Theme</dc:title>
      </cc:Work>
    </rdf:RDF>
  </metadata>
  <title
     id="title9167">Gnome Symbolic Icon Theme</title>
  <path
     id="rect3845-3-6-7"
     d="M 0.875,2 C 0.341649,2 0.1498133,2.3866433 0,2.8574219 V 6 H 9.5 L 6,2 Z M 0,7 v 7.142578 C 2.62e-5,14.539258 0.456659,15 0.875,15 h 14.25 C 15.509321,15 16.056352,14.545277 16,14.142578 V 8 C 16.0084,7.509009 15.520507,7.0294829 15.125,7 Z"
     style="fill:#bebebe;fill-opacity:1" />
</svg>
